actions/24/folder-new.svg

<?xml version="1.0" encoding="UTF-8" standalone="no"?>
<svg
   xmlns:dc="http://purl.org/dc/elements/1.1/"
   xmlns:cc="http://creativecommons.org/ns#"
   xmlns:rdf="http://www.w3.org/1999/02/22-rdf-syntax-ns#"
   xmlns:svg="http://www.w3.org/2000/svg"
   xmlns="http://www.w3.org/2000/svg"
   xmlns:xlink="http://www.w3.org/1999/xlink"
   id="svg10994"
   height="24"
   width="24"
   version="1.1">
  <defs
     id="defs10996">
    <linearGradient
       id="linearGradient4280">
      <stop
         id="stop4282"
         offset="0"
         style="stop-color:#000000;stop-opacity:1;" />
      <stop
         id="stop4284"
         offset="1"
         style="stop-color:#000000;stop-opacity:0;" />
    </linearGradient>
    <linearGradient
       gradientTransform="matrix(0.62762637,0,0,0.7245642,2.9730682,4.6273679)"
       gradientUnits="userSpaceOnUse"
       xlink:href="#linearGradient3454-2-5-0-3-4-1"
       id="linearGradient4440-9"
       y2="21.386522"
       x2="27.557428"
       y1="6.0348444"
       x1="27.557428" />
    <linearGradient
       id="linearGradient3454-2-5-0-3-4-1">
      <stop
         offset="0"
         style="stop-color:#ffffff;stop-opacity:1"
         id="stop3456-4-9-38-1-8-8" />
      <stop
         offset="0.0097359"
         style="stop-color:#ffffff;stop-opacity:0.23529412"
         id="stop3458-39-80-3-5-5-8" />
      <stop
         offset="0.99001008"
         style="stop-color:#ffffff;stop-opacity:0.15686275"
         id="stop3460-7-0-2-4-2-7" />
      <stop
         offset="1"
         style="stop-color:#ffffff;stop-opacity:0.39215687"
         id="stop3462-0-9-8-7-2-3" />
    </linearGradient>
    <linearGradient
       id="linearGradient4632-0-6-4-3-4-0">
      <stop
         offset="0"
         style="stop-color:#b4cee1;stop-opacity:1"
         id="stop4634-4-4-7-7-4-8" />
      <stop
         offset="1"
         style="stop-color:#5d9fcd;stop-opacity:1"
         id="stop4636-3-1-5-1-3-9" />
    </linearGradient>
    <linearGradient
       gradientTransform="matrix(0.43131243,0,0,0.48638011,1.9898582,3.1854079)"
       gradientUnits="userSpaceOnUse"
       xlink:href="#linearGradient4325-0"
       id="linearGradient4418-4"
       y2="34.143417"
       x2="21.37039"
       y1="4.73244"
       x1="21.37039" />
    <linearGradient
       id="linearGradient4325-0">
      <stop
         offset="0"
         style="stop-color:#ffffff;stop-opacity:1"
         id="stop4327-4" />
      <stop
         offset="0.1106325"
         style="stop-color:#ffffff;stop-opacity:0.23529412"
         id="stop4329-5" />
      <stop
         offset="0.99001008"
         style="stop-color:#ffffff;stop-opacity:0.15686275"
         id="stop4331-6" />
      <stop
         offset="1"
         style="stop-color:#ffffff;stop-opacity:0.39215687"
         id="stop4333-7" />
    </linearGradient>
    <linearGradient
       gradientTransform="matrix(0.49096263,0,0,0.48984879,-24.706222,0.2872379)"
       gradientUnits="userSpaceOnUse"
       xlink:href="#linearGradient4646-7-4-3-5-6"
       id="linearGradient4414-2"
       y2="16"
       x2="62.988873"
       y1="13"
       x1="62.988873" />
    <linearGradient
       id="linearGradient4646-7-4-3-5-6">
      <stop
         offset="0"
         style="stop-color:#f9f9f9;stop-opacity:1"
         id="stop4648-8-0-3-6-5" />
      <stop
         offset="1"
         style="stop-color:#d8d8d8;stop-opacity:1"
         id="stop4650-1-7-3-4-8" />
    </linearGradient>
    <linearGradient
       gradientTransform="matrix(2.774389,0,0,1.969706,-1892.179,-872.8854)"
       gradientUnits="userSpaceOnUse"
       xlink:href="#linearGradient5048"
       id="linearGradient3028"
       y2="609.50507"
       x2="302.85715"
       y1="366.64789"
       x1="302.85715" />
    <linearGradient
       id="linearGradient5048">
      <stop
         offset="0"
         style="stop-color:#000000;stop-opacity:0"
         id="stop5050" />
      <stop
         offset="0.5"
         style="stop-color:#000000;stop-opacity:1"
         id="stop5056" />
      <stop
         offset="1"
         style="stop-color:#000000;stop-opacity:0"
         id="stop5052" />
    </linearGradient>
    <radialGradient
       gradientTransform="matrix(2.774389,0,0,1.969706,-1891.633,-872.8854)"
       gradientUnits="userSpaceOnUse"
       xlink:href="#linearGradient5060"
       id="radialGradient3030"
       fy="486.64789"
       fx="605.71429"
       r="117.14286"
       cy="486.64789"
       cx="605.71429" />
    <linearGradient
       id="linearGradient5060">
      <stop
         offset="0"
         style="stop-color:#000000;stop-opacity:1"
         id="stop5062" />
      <stop
         offset="1"
         style="stop-color:#000000;stop-opacity:0"
         id="stop5064" />
    </linearGradient>
    <radialGradient
       gradientTransform="matrix(-2.774389,0,0,1.969706,112.7623,-872.8854)"
       gradientUnits="userSpaceOnUse"
       xlink:href="#linearGradient5060"
       id="radialGradient3032"
       fy="486.64789"
       fx="605.71429"
       r="117.14286"
       cy="486.64789"
       cx="605.71429" />
    <linearGradient
       gradientTransform="translate(0,1)"
       gradientUnits="userSpaceOnUse"
       y2="20"
       x2="13"
       y1="8"
       x1="13"
       id="linearGradient4208"
       xlink:href="#linearGradient4632-0-6-4-3-4-0" />
    <linearGradient
       gradientTransform="translate(0,1)"
       gradientUnits="userSpaceOnUse"
       y2="18"
       x2="12"
       y1="23"
       x1="12"
       id="linearGradient4286"
       xlink:href="#linearGradient4280" />
    <radialGradient
       gradientTransform="matrix(0,0.52544994,-0.5716256,0,46.193389,-21.123812)"
       gradientUnits="userSpaceOnUse"
       xlink:href="#linearGradient3242-7-3-8-0-4-58-06"
       id="radialGradient3900-3"
       fy="48.216358"
       fx="65.297462"
       r="31.000002"
       cy="48.216358"
       cx="65.297462" />
    <linearGradient
       id="linearGradient3242-7-3-8-0-4-58-06">
      <stop
         id="stop3244-5-8-5-6-4-3-8"
         style="stop-color:#cdf87e;stop-opacity:1"
         offset="0" />
      <stop
         id="stop3246-9-5-1-5-3-0-7"
         style="stop-color:#a2e34f;stop-opacity:1"
         offset="0.26238" />
      <stop
         id="stop3248-7-2-0-7-5-35-9"
         style="stop-color:#68b723;stop-opacity:1"
         offset="0.66093999" />
      <stop
         id="stop3250-8-2-8-5-6-40-4"
         style="stop-color:#1d7e0d;stop-opacity:1"
         offset="1" />
    </linearGradient>
    <linearGradient
       gradientTransform="matrix(0.2817955,0,0,0.2800956,12.196562,12.014885)"
       gradientUnits="userSpaceOnUse"
       xlink:href="#linearGradient4154"
       id="linearGradient3030"
       y2="35.62291"
       x2="24.138529"
       y1="10.631441"
       x1="24.138529" />
    <linearGradient
       id="linearGradient4154">
      <stop
         offset="0"
         style="stop-color:#ffffff;stop-opacity:1"
         id="stop4156" />
      <stop
         offset="0.00000002"
         style="stop-color:#ffffff;stop-opacity:0.23529412"
         id="stop4158" />
      <stop
         offset="1"
         style="stop-color:#ffffff;stop-opacity:0.15686275"
         id="stop4160" />
      <stop
         offset="1"
         style="stop-color:#ffffff;stop-opacity:0.39215687"
         id="stop4162" />
    </linearGradient>
    <linearGradient
       gradientTransform="matrix(0.2817955,0,0,0.2800956,12.178741,12.02218)"
       gradientUnits="userSpaceOnUse"
       xlink:href="#linearGradient4333"
       id="linearGradient3030-1"
       y2="24.912279"
       x2="24.138529"
       y1="21.34207"
       x1="24.138529" />
    <linearGradient
       id="linearGradient4333">
      <stop
         id="stop4335"
         style="stop-color:#ffffff;stop-opacity:1"
         offset="0" />
      <stop
         id="stop4337"
         style="stop-color:#ffffff;stop-opacity:0.23529412"
         offset="0.00000019" />
      <stop
         id="stop4339"
         style="stop-color:#ffffff;stop-opacity:0.15686275"
         offset="1" />
      <stop
         id="stop4341"
         style="stop-color:#ffffff;stop-opacity:0.39215687"
         offset="1" />
    </linearGradient>
  </defs>
  <metadata
     id="metadata10999">
    <rdf:RDF>
      <cc:Work
         rdf:about="">
        <dc:format>image/svg+xml</dc:format>
        <dc:type
           rdf:resource="http://purl.org/dc/dcmitype/StillImage" />
        <dc:title></dc:title>
      </cc:Work>
    </rdf:RDF>
  </metadata>
  <g
     id="g6802">
    <g
       style="stroke-width:1.88256383;stroke-miterlimit:4;stroke-dasharray:none"
       id="g3490"
       transform="matrix(0.5459263,0,0,0.5168524,-0.96573178,-1.578182)">
      <g
         style="display:inline;stroke-width:104.96237946;stroke-miterlimit:4;stroke-dasharray:none"
         id="g5022"
         transform="matrix(0.02165152,0,0,0.01485743,43.0076,42.68539)">
        <rect
           style="display:inline;overflow:visible;visibility:visible;opacity:0.40206185;fill:url(#linearGradient3028);fill-opacity:1;fill-rule:nonzero;stroke:none;stroke-width:104.96237946;marker:none"
           id="rect4173-4"
           y="-150.69685"
           x="-1559.2523"
           height="478.35718"
           width="1339.6335" />
        <path
           style="display:inline;overflow:visible;visibility:visible;opacity:0.40206185;fill:url(#radialGradient3030);fill-opacity:1;fill-rule:nonzero;stroke:none;stroke-width:104.96237946;marker:none"
           id="path5058-9"
           d="m -219.61876,-150.68038 c 0,0 0,478.33079 0,478.33079 142.874166,0.90045 345.40022,-107.16966 345.40014,-239.196175 0,-132.026537 -159.436816,-239.134595 -345.40014,-239.134615 z" />
        <path
           style="display:inline;overflow:visible;visibility:visible;opacity:0.40206185;fill:url(#radialGradient3032);fill-opacity:1;fill-rule:nonzero;stroke:none;stroke-width:104.96237946;marker:none"
           id="path5018-53"
           d="m -1559.2523,-150.68038 c 0,0 0,478.33079 0,478.33079 -142.8742,0.90045 -345.4002,-107.16966 -345.4002,-239.196175 0,-132.026537 159.4368,-239.134595 345.4002,-239.134615 z" />
      </g>
    </g>
    <path
       style="color:#000000;display:inline;overflow:visible;visibility:visible;opacity:0.3;fill:none;stroke:#000000;stroke-width:1;stroke-linecap:butt;stroke-linejoin:miter;stroke-miterlimit:4;stroke-dasharray:none;stroke-dashoffset:0;stroke-opacity:1;marker:none;enable-background:accumulate"
       id="rect3186"
       d="m 3.0362982,3.5043839 c -0.277,0 -0.5,0.223 -0.5,0.5 l 0,1.495614 -0.5,0 c -0.277,0 -0.5,0.223 -0.5,0.5 l 0,1.76465 20.9999998,0 0,-1.76465 c 0,-0.277 -0.223,-0.5 -0.5,-0.5 l -11.5,0 0,-1.495614 c 0,-0.277 -0.223,-0.5 -0.5,-0.5 z" />
    <path
       style="color:#000000;display:inline;overflow:visible;visibility:visible;fill:url(#linearGradient4414-2);fill-opacity:1;fill-rule:nonzero;stroke:none;stroke-width:1;marker:none;enable-background:accumulate"
       id="rect3409-5-2"
       d="m 3.0362982,3.9999979 0,2 -1,0 0,3 19.9999998,0 0,-3 -12,0 0,-2 z" />
    <path
       style="color:#000000;display:inline;overflow:visible;visibility:visible;fill:none;stroke:url(#linearGradient4418-4);stroke-width:1;stroke-linecap:round;stroke-linejoin:miter;stroke-miterlimit:4;stroke-dasharray:none;stroke-dashoffset:0;stroke-opacity:1;marker:none;enable-background:accumulate"
       id="rect3409-3"
       d="m 3.5362982,4.4999979 0,2 -1,0 0,2.33929 18.9999998,0 0,-2.33929 -11.9999998,0 0,-2 z" />
    <path
       style="color:#000000;font-style:normal;font-variant:normal;font-weight:normal;font-stretch:normal;font-size:medium;line-height:normal;font-family:sans-serif;text-indent:0;text-align:start;text-decoration:none;text-decoration-line:none;text-decoration-style:solid;text-decoration-color:#000000;letter-spacing:normal;word-spacing:normal;text-transform:none;direction:ltr;block-progression:tb;writing-mode:lr-tb;baseline-shift:baseline;text-anchor:start;white-space:normal;clip-rule:nonzero;display:inline;overflow:visible;visibility:visible;opacity:1;isolation:auto;mix-blend-mode:normal;color-interpolation:sRGB;color-interpolation-filters:linearRGB;solid-color:#000000;solid-opacity:1;fill:url(#linearGradient4208);fill-opacity:1;fill-rule:nonzero;stroke:#000000;stroke-width:1;stroke-linecap:butt;stroke-linejoin:round;stroke-miterlimit:4;stroke-dasharray:none;stroke-dashoffset:0;stroke-opacity:0.30196078;color-rendering:auto;image-rendering:auto;shape-rendering:auto;text-rendering:auto;enable-background:accumulate"
       d="M 1.5,7.5 1.5,8 1.5,18.000264 1.75,21.5 22.25,21.5 22.5,18.000264 22.5,7.5 Z"
       id="rect4198" />
    <path
       style="color:#000000;font-style:normal;font-variant:normal;font-weight:normal;font-stretch:normal;font-size:medium;line-height:normal;font-family:sans-serif;text-indent:0;text-align:start;text-decoration:none;text-decoration-line:none;text-decoration-style:solid;text-decoration-color:#000000;letter-spacing:normal;word-spacing:normal;text-transform:none;direction:ltr;block-progression:tb;writing-mode:lr-tb;baseline-shift:baseline;text-anchor:start;white-space:normal;clip-rule:nonzero;display:inline;overflow:visible;visibility:visible;opacity:0.3;isolation:auto;mix-blend-mode:normal;color-interpolation:sRGB;color-interpolation-filters:linearRGB;solid-color:#000000;solid-opacity:1;fill:url(#linearGradient4286);fill-opacity:1;fill-rule:nonzero;stroke:none;stroke-width:1;stroke-linecap:butt;stroke-linejoin:round;stroke-miterlimit:4;stroke-dasharray:none;stroke-dashoffset:0;stroke-opacity:1;color-rendering:auto;image-rendering:auto;shape-rendering:auto;text-rendering:auto;enable-background:accumulate"
       d="M 1.5,7 C 1.223869,7.0000276 1.000028,7.2238691 1,7.5 L 1,8 1.25,21.5 c 2.8e-5,0.276131 0.223869,0.499972 0.5,0.5 l 20.5,0 c 0.276131,-2.8e-5 0.499972,-0.223869 0.5,-0.5 L 23,7.5 C 22.999972,7.2238691 22.776131,7.0000276 22.5,7 Z"
       id="path4268" />
    <path
       style="color:#000000;display:inline;overflow:visible;visibility:visible;opacity:0.5;fill:none;stroke:url(#linearGradient4440-9);stroke-width:1.00000012;stroke-linecap:round;stroke-linejoin:miter;stroke-miterlimit:4;stroke-dasharray:none;stroke-dashoffset:0;stroke-opacity:1;marker:none;enable-background:accumulate"
       id="path3309-8"
       d="M 2.5,8.4999979 2.4462368,18.004917 2.75,20.499998 l 18.5,0 0.258854,-2.444262 L 21.5,8.4999979 Z" />
  </g>
  <g
     id="g4474">
    <path
       d="m 16.482179,16.507295 0,-3 4,0 0,3 3,0 0,4 -3,0 0,2.999991 -4,0 0,-2.999991 -2.989465,0 0,-4 2.989465,0 z"
       id="path2262"
       style="color:#000000;display:inline;overflow:visible;visibility:visible;fill:url(#radialGradient3900-3);fill-opacity:1;fill-rule:nonzero;stroke:none;stroke-width:0.98542744;marker:none;enable-background:accumulate" />
    <path
       d="m 17.5,18.004404 0,-3.504404 2,0 0,3.5 m 0,1 0,3.5 -2,0 0,-3.5"
       id="path2272"
       style="display:inline;opacity:0.5;fill:none;stroke:url(#linearGradient3030);stroke-width:1;stroke-linecap:butt;stroke-linejoin:miter;stroke-miterlimit:4;stroke-dasharray:none;stroke-opacity:1" />
    <path
       d="m 16.482179,16.507295 0,-3 4,0 0,3 3,0 0,4 -3,0 0,2.999991 -4,0 0,-2.999991 -2.989465,0 0,-4 2.989465,0 z"
       id="path2262-2"
       style="color:#000000;clip-rule:nonzero;display:inline;overflow:visible;visibility:visible;opacity:0.5;isolation:auto;mix-blend-mode:normal;color-interpolation:sRGB;color-interpolation-filters:linearRGB;solid-color:#000000;solid-opacity:1;fill:none;fill-opacity:1;fill-rule:nonzero;stroke:#0f5a00;stroke-width:1;stroke-linecap:round;stroke-linejoin:round;stroke-miterlimit:4;stroke-dasharray:none;stroke-dashoffset:0;stroke-opacity:1;marker:none;color-rendering:auto;image-rendering:auto;shape-rendering:auto;text-rendering:auto;enable-background:accumulate" />
    <path
       d="m 20,17.507295 2.482179,-0.0073 0,2 L 20,19.507295 m -3,0 -2.5,-0.0073 0,-2 2.5,0.0073"
       id="path2272-2"
       style="display:inline;opacity:0.5;fill:none;stroke:url(#linearGradient3030-1);stroke-width:1;stroke-linecap:butt;stroke-linejoin:miter;stroke-miterlimit:4;stroke-dasharray:none;stroke-opacity:1" />
  </g>
</svg>

<svg xmlns="http://www.w3.org/2000/svg" xmlns:xlink="http://www.w3.org/1999/xlink" viewBox="0 0 24 24"><defs><linearGradient id="g"><stop offset="0"/><stop offset="1" stop-opacity="0"/></linearGradient><linearGradient gradientTransform="matrix(.62763 0 0 .72456 2.973 4.627)" gradientUnits="userSpaceOnUse" xlink:href="#a" id="r" y2="21.387" x2="27.557" y1="6.035" x1="27.557"/><linearGradient id="a"><stop offset="0" stop-color="#fff"/><stop offset=".01" stop-color="#fff" stop-opacity=".235"/><stop offset=".99" stop-color="#fff" stop-opacity=".157"/><stop offset="1" stop-color="#fff" stop-opacity=".392"/></linearGradient><linearGradient id="f"><stop offset="0" stop-color="#b4cee1"/><stop offset="1" stop-color="#5d9fcd"/></linearGradient><linearGradient gradientTransform="matrix(.4313 0 0 .48638 1.99 3.185)" gradientUnits="userSpaceOnUse" xlink:href="#b" id="o" y2="34.143" x2="21.37" y1="4.732" x1="21.37"/><linearGradient id="b"><stop offset="0" stop-color="#fff"/><stop offset=".111" stop-color="#fff" stop-opacity=".235"/><stop offset=".99" stop-color="#fff" stop-opacity=".157"/><stop offset="1" stop-color="#fff" stop-opacity=".392"/></linearGradient><linearGradient gradientTransform="matrix(.49096 0 0 .48985 -24.706 .287)" gradientUnits="userSpaceOnUse" xlink:href="#c" id="n" y2="16" x2="62.989" y1="13" x1="62.989"/><linearGradient id="c"><stop offset="0" stop-color="#f9f9f9"/><stop offset="1" stop-color="#d8d8d8"/></linearGradient><linearGradient gradientTransform="matrix(2.7744 0 0 1.9697 -1892.18 -872.885)" gradientUnits="userSpaceOnUse" xlink:href="#d" id="k" y2="609.505" x2="302.857" y1="366.648" x1="302.857"/><linearGradient id="d"><stop offset="0" stop-opacity="0"/><stop offset=".5"/><stop offset="1" stop-opacity="0"/></linearGradient><radialGradient gradientTransform="matrix(2.7744 0 0 1.9697 -1891.633 -872.885)" gradientUnits="userSpaceOnUse" xlink:href="#e" id="l" fy="486.648" fx="605.714" r="117.143" cy="486.648" cx="605.714"/><linearGradient id="e"><stop offset="0"/><stop offset="1" stop-opacity="0"/></linearGradient><radialGradient gradientTransform="matrix(-2.7744 0 0 1.9697 112.762 -872.885)" gradientUnits="userSpaceOnUse" xlink:href="#e" id="m" fy="486.648" fx="605.714" r="117.143" cy="486.648" cx="605.714"/><linearGradient gradientTransform="translate(0 1)" gradientUnits="userSpaceOnUse" y2="20" x2="13" y1="8" x1="13" id="p" xlink:href="#f"/><linearGradient gradientTransform="translate(0 1)" gradientUnits="userSpaceOnUse" y2="18" x2="12" y1="23" x1="12" id="q" xlink:href="#g"/><radialGradient gradientTransform="matrix(0 .52545 -.57163 0 46.193 -21.124)" gradientUnits="userSpaceOnUse" xlink:href="#h" id="s" fy="48.216" fx="65.297" r="31" cy="48.216" cx="65.297"/><linearGradient id="h"><stop offset="0" stop-color="#cdf87e"/><stop offset=".262" stop-color="#a2e34f"/><stop offset=".661" stop-color="#68b723"/><stop offset="1" stop-color="#1d7e0d"/></linearGradient><linearGradient gradientTransform="matrix(.2818 0 0 .28 12.197 12.015)" gradientUnits="userSpaceOnUse" xlink:href="#i" id="t" y2="35.623" x2="24.139" y1="10.631" x1="24.139"/><linearGradient id="i"><stop offset="0" stop-color="#fff"/><stop offset="0" stop-color="#fff" stop-opacity=".235"/><stop offset="1" stop-color="#fff" stop-opacity=".157"/><stop offset="1" stop-color="#fff" stop-opacity=".392"/></linearGradient><linearGradient gradientTransform="matrix(.2818 0 0 .28 12.18 12.022)" gradientUnits="userSpaceOnUse" xlink:href="#j" id="u" y2="24.912" x2="24.139" y1="21.342" x1="24.139"/><linearGradient id="j"><stop offset="0" stop-color="#fff"/><stop offset="0" stop-color="#fff" stop-opacity=".235"/><stop offset="1" stop-color="#fff" stop-opacity=".157"/><stop offset="1" stop-color="#fff" stop-opacity=".392"/></linearGradient></defs><g stroke-width="104.962"><path overflow="visible" opacity=".402" fill="url(#k)" d="M-1559.252-150.697H-219.62V327.66h-1339.63z" transform="matrix(.01182 0 0 .00768 22.513 20.484)"/><path d="M-219.62-150.68v478.33c142.875.9 345.4-107.17 345.4-239.196S-33.654-150.68-219.62-150.68z" overflow="visible" opacity=".402" fill="url(#l)" transform="matrix(.01182 0 0 .00768 22.513 20.484)"/><path d="M-1559.252-150.68v478.33c-142.875.9-345.4-107.17-345.4-239.196s159.436-239.134 345.4-239.134z" overflow="visible" opacity=".402" fill="url(#m)" transform="matrix(.01182 0 0 .00768 22.513 20.484)"/></g><path d="M3.036 3.504a.5.5 0 0 0-.5.5V5.5h-.5a.5.5 0 0 0-.5.5v1.765h21V6a.5.5 0 0 0-.5-.5h-11.5V4.004a.5.5 0 0 0-.5-.5z" color="#000" overflow="visible" opacity=".3" fill="none" stroke="#000"/><path d="M3.036 4v2h-1v3h20V6h-12V4z" color="#000" overflow="visible" fill="url(#n)"/><path d="M3.536 4.5v2h-1v2.34h19V6.5h-12v-2z" color="#000" overflow="visible" fill="none" stroke="url(#o)" stroke-linecap="round"/><path style="line-height:normal;text-indent:0;text-align:start;text-decoration-line:none;text-decoration-style:solid;text-decoration-color:#000;text-transform:none;block-progression:tb;isolation:auto;mix-blend-mode:normal" d="M1.5 7.5V18l.25 3.5h20.5l.25-3.5V7.5z" color="#000" font-weight="400" font-family="sans-serif" white-space="normal" overflow="visible" fill="url(#p)" stroke="#000" stroke-linejoin="round" stroke-opacity=".302"/><path style="line-height:normal;text-indent:0;text-align:start;text-decoration-line:none;text-decoration-style:solid;text-decoration-color:#000;text-transform:none;block-progression:tb;isolation:auto;mix-blend-mode:normal" d="M1.5 7a.5.5 0 0 0-.5.5V8l.25 13.5a.5.5 0 0 0 .5.5h20.5a.5.5 0 0 0 .5-.5l.25-14a.5.5 0 0 0-.5-.5z" color="#000" font-weight="400" font-family="sans-serif" white-space="normal" overflow="visible" opacity=".3" fill="url(#q)"/><path d="M2.5 8.5l-.054 9.505.304 2.495h18.5l.26-2.444L21.5 8.5z" color="#000" overflow="visible" opacity=".5" fill="none" stroke="url(#r)" stroke-linecap="round"/><path d="M16.482 16.507v-3h4v3h3v4h-3v3h-4v-3h-2.99v-4h2.99z" color="#000" overflow="visible" fill="url(#s)"/><path d="M17.5 18.004V14.5h2V18m0 1v3.5h-2V19" opacity=".5" fill="none" stroke="url(#t)"/><path d="M16.482 16.507v-3h4v3h3v4h-3v3h-4v-3h-2.99v-4h2.99z" style="isolation:auto;mix-blend-mode:normal" color="#000" overflow="visible" opacity=".5" fill="none" stroke="#0f5a00" stroke-linecap="round" stroke-linejoin="round"/><path d="M20 17.507l2.482-.007v2L20 19.507m-3 0l-2.5-.007v-2l2.5.007" opacity=".5" fill="none" stroke="url(#u)"/></svg>
